X:1
T:The Well-Tempered Clavier Book II - VIII
T:BWV 877    (A = 415 Hz)
T:J. S. Bach
%%score { ( 1 4 5 ) | ( 2 3 ) }
L:1/8
Q:1/4=96
M:4/4
K:F#
V:1 treble nm="Harp"
V:4 treble 
V:5 treble 
V:2 bass 
V:3 bass 
V:1
"^Praeludium" D/F/E/G/ F/A/G/B/ A/d/^^c/^B/ A/G/F/E/ | F^^CDd d/4^^c/4^B/A z d/4c/4B/4c/4 | %2
 d/f/e/g/ f/e/d/c/ Bd g/4f/4g3/2- | g/e/f/d/ e/g/c/B/ Ac f/4e/4f3/2- | %4
 f/e/d/^^c/ d/f/G/f/ e/d/^c/^B/ c/e/F/=e/ | d/c/B/A/ B/d/^E/d/ B/d/F/d/ B/d/G/d/ | %6
 c/B/A/G/ A/c/D/c/ A/c/E/c/ A/c/F/c/ | B/A/G/F/ G/B/C/B/ G/B/D/B/ G/B/E/B/ | %8
 A/F/E/d/ c/A/G/f/ f/4e/4d/c z2 | F/A/G/B/ A/c/B/d/ c/f/e/d/ c/B/A/G/ | %10
 A/c/^B/d/ c/e/d/f/ e/a/^^g/^^f/ e/d/c/B/ | c^^GAf G/4^^F/4E/d z/ G/A/^B/ | %12
 E/c/^B/d/ c/B/A/^^G/ c/A/G/B/ A/^G/F/E/ | %13
 D/c/^B/d/ c/B/A/^^G/ ^^f/c/B/A/ a/4^^g/4a/4g/4a/4g/4^^f/4g/4 | %14
 a/g/4f/4e/d/ c/a/^B/^^g/ a/A/d/4c/4B/ c/B/4A/4^^G/4A/4B/ | %15
 E/4A/4G/4F/4E/D/ C/^B,/4C/4D/4C/4B,/ A,/C/E/^^G/ GA | D/F/E/G/ F/A/G/B/ A/d/^^c/^B/ A/G/F/E/ | %17
 F^^CDd d/4^^c/4^B/A z d/4c/4B/4c/4 | d/f/e/g/ f/e/d/c/ Bd g/4f/4g3/2- | %19
 g/e/f/d/ e/g/c/B/ Ac f/4e/4f3/2- | f/e/d/^^c/ d/f/G/f/ e/d/^c/^B/ c/e/F/=e/ | %21
 d/c/B/A/ B/d/^E/d/ B/d/F/d/ B/d/G/d/ | c/B/A/G/ A/c/D/c/ A/c/E/c/ A/c/F/c/ | %23
 B/A/G/F/ G/B/C/B/ G/B/D/B/ G/B/E/B/ | A/F/E/d/ c/A/G/f/ f/4e/4d/c z2 | %25
 F/A/G/B/ A/c/B/d/ c/f/e/d/ c/B/A/G/ | A/c/^B/d/ c/e/d/f/ e/a/^^g/^^f/ e/d/c/B/ | %27
 c^^GAf G/4^^F/4E/d z/ G/A/^B/ | E/c/^B/d/ c/B/A/^^G/ c/A/G/B/ A/^G/F/E/ | %29
 D/c/^B/d/ c/B/A/^^G/ ^^f/c/B/A/ a/4^^g/4a/4g/4a/4g/4^^f/4g/4 | %30
 a/g/4f/4e/d/ c/a/^B/^^g/ a/A/d/4c/4B/ c/B/4A/4^^G/4A/4B/ | %31
 E/4A/4G/4F/4E/D/ C/^B,/4C/4D/4C/4B,/ A,/C/E/^^G/ GA | %32
 g/e/4^^c/4A- A/c/4e/4f/4e/4d/ =c/e/4g/4b- b/e/4d/4e/4f/4g/ | %33
 f/e/d/^^c/ d/f/G/f/ d/f/A/f/ d/f/^B/f/ | c/e/d/f/ e/g/f/a/ g/b/a/g/ f/e/d/c/ | %35
 f/B/A/G/ A/=ed/ c/fe/ d/f/b/^^f/ | g/=e/d/f/ e/d/c/^B/ A/c/=B/d/ c/B/A/G/ | %37
 ^^FA d/4c/4d3/2- d/B/c/A/ B/d/G/^F/ | =EG c/4B/4c3/2- c/E/D/^^C/ DA | %39
 d/c/4B/4A/4B/4c/ B/g/A/^^f/ g/=e/d/c/ d/G/^^F/c/ | B/A/G/^^F/ G/B/C/B/ G/B/D/B/ G/B/E/B/ | %41
 A/G/F/E/ F/A/^B,/A/ F/A/^^C/A/ F/A/D/A/ | G/F/E/D/ E/G/A,/G/ E/G/^B,/G/ E/G/^^C/G/ | %43
 F/A/^^c/e/ A/c/e/g/ f/4e/4d/e z2 | D/F/E/G/ F/A/G/B/ A/d/^^c/^B/ A/G/F/E/ | %45
 F/A/G/B/ A/G/F/E/ D/F/E/G/ F/E/D/^^C/ | D/G/^^F/A/ G/^F/E/D/ ^^C/E/D/F/ E/D/C/^B,/ | %47
 A,A G/F/E/F/ D/^^F/E/G/ F/A/G/B/ | A/c/B/A/ G/^^F/^E/D/ d/^B/4^^G/4E- E/G/4B/4c/4B/4A/ | %49
 ^^G/^B/4d/4f- f/B/4A/4B/4^^c/4d/ c/e/d/f/ e/g/f/a/ | %50
 g/b/a/g/ f/e/d/^^c/ d/e/4f/4g/4f/4e/ f/e/4d/4c/4d/4e/ | %51
 A/4d/4c/4B/4A/G/ F/E/4F/4G/4F/4E/ D/F/A/^^c/ cd | %52
 g/e/4^^c/4A- A/c/4e/4f/4e/4d/ =c/e/4g/4b- b/e/4d/4e/4f/4g/ | %53
 f/e/d/^^c/ d/f/G/f/ d/f/A/f/ d/f/^B/f/ | c/e/d/f/ e/g/f/a/ g/b/a/g/ f/e/d/c/ | %55
 f/B/A/G/ A/=ed/ c/fe/ d/f/b/^^f/ | g/=e/d/f/ e/d/c/^B/ A/c/=B/d/ c/B/A/G/ | %57
 ^^FA d/4c/4d3/2- d/B/c/A/ B/d/G/^F/ | =EG c/4B/4c3/2- c/E/D/^^C/ DA | %59
 d/c/4B/4A/4B/4c/ B/g/A/^^f/ g/=e/d/c/ d/G/^^F/c/ | B/A/G/^^F/ G/B/C/B/ G/B/D/B/ G/B/E/B/ | %61
 A/G/F/E/ F/A/^B,/A/ F/A/^^C/A/ F/A/D/A/ | G/F/E/D/ E/G/A,/G/ E/G/^B,/G/ E/G/^^C/G/ | %63
 F/A/^^c/e/ A/c/e/g/ f/4e/4d/e z2 | D/F/E/G/ F/A/G/B/ A/d/^^c/^B/ A/G/F/E/ | %65
 F/A/G/B/ A/G/F/E/ D/F/E/G/ F/E/D/^^C/ | D/G/^^F/A/ G/^F/E/D/ ^^C/E/D/F/ E/D/C/^B,/ | %67
 A,A G/F/E/F/ D/^^F/E/G/ F/A/G/B/ | A/c/B/A/ G/^^F/^E/D/ d/^B/4^^G/4E- E/G/4B/4c/4B/4A/ | %69
 ^^G/^B/4d/4f- f/B/4A/4B/4^^c/4d/ c/e/d/f/ e/g/f/a/ | %70
 g/b/a/g/ f/e/d/^^c/ d/e/4f/4g/4f/4e/ f/e/4d/4c/4d/4e/ | %71
 A/4d/4c/4B/4A/G/ F/E/4F/4G/4F/4E/ D/F/A/^^c/ c!fermata!d | z8 |[M:4/4]"^Fuga" z DDD ^^CD E2- | %74
 ED G3 F/E/ AG | FE DC/D/ E3 D/E/ | F3 E/^^F/ G3 F/^^G/ | A^B c3 ^^FGA | D G2 ^^F B3 A/G/ | %79
 FGAB E/F/E/D/ ^^C/D/E/F/ | G/A/G/F/ E2- EF/G/ FE | z AAA ^^EA ^B2- | BA d3 c/^B/ ed | %83
 c2- cd/=e/ A d2 c- | cB A2- AG g2- | g f2 e/d/ ^^cefc | d/c/B/A/ GA BA G2- | GFE=E D3 C/D/ | %88
 =E3 D/^E/ F3 E/^^F/ | G z z2 z4 | z8 | z8 | z8 | z ddd ^^cd e2- | ed g3 f/e/ ag | fa d2- d3 ^^c | %96
 d z z2 z4 | z8 | z8 | z4 z ccc | ^Bc d2- dc f2- | f=e/d/ gf ^ec f2- | f2 e2 f3 =e | %103
 d3 c/B/ A2 a2- | ag/^^f/ g4- gf | g3 f ^e4- | ed/c/ BA ^^G2 A2- | A2 ^^G2 A3 ^G | ^^FcB A2 G c2- | %109
 cB/A/ B=e ^^cA g2- | gf/e/ fb ^^ge a/^g/^^f/d/ | d2- d/f/e/d/ ^^c/e/d/^c/ ^B/d/c/=B/ | %112
 A2- AG- G/D/F/A/ d/A/f | e z z b a z z g | ^^c z z e Ad/c/ dG | F2 E2 Dddd | ^^cd e2- ed g2- | %117
 gf/e/ ag f^^c d2- | d2 ^^c2 d4 |] %119
V:2
 D,/4C,/4D,/-D, D,,2 z4 | D,/F,/E,/G,/ F,/A,/G,/B,/ A,/D/^^C/^B,/ A,/G,/F,/E,/ | %2
 F,^^C,D,F, G,/B,/A,/C/ B,/A,/G,/F,/ | E,G, C/4B,/4C3/2- C/A,/B,/G,/ A,/C/F,/E,/ | %4
 D,F, B,/4A,/4B,3/2 C,E, A,/4G,/4A,3/2 | B,,D,G,C, D,B,G,E, | A,,C,F,B,, C,A,F,D, | %7
 G,,B,,E,A,, B,,G,E,C, | F,,/A,,/G,,/B,,/ A,,/C,/B,,/D,/ C,/F,/E,/D,/ C,/B,,/A,,/G,,/ | %9
 A,,C,F,G, A,B,CC, | F,D,E,^B,, C,D,E,E,, | %11
 A,,/C,/^B,,/D,/ C,/E,/D,/F,/ E,/A,/^^G,/^^F,/ E,/D,/C,/B,,/ | %12
 C,/E,/D,/F,/ E,/D,/C,/^B,,/ A,,/C,/B,,/D,/ C,/B,,/A,,/G,,/ | %13
 ^^F,,/A,,/^^G,,/^B,,/ A,,/^G,,/^F,,/E,,/ ^^D,,^^D, z/ F,/E,/^D,/ | %14
 C,/^B,,/C,/D,/ E,/F,/D,/E,/ F,F,,E,,D,, | C,,C,/D,/ E,E,, A,,4 | D,/4C,/4D,/-D, D,,2 z4 | %17
 D,/F,/E,/G,/ F,/A,/G,/B,/ A,/D/^^C/^B,/ A,/G,/F,/E,/ | F,^^C,D,F, G,/B,/A,/C/ B,/A,/G,/F,/ | %19
 E,G, C/4B,/4C3/2- C/A,/B,/G,/ A,/C/F,/E,/ | D,F, B,/4A,/4B,3/2 C,E, A,/4G,/4A,3/2 | %21
 B,,D,G,C, D,B,G,E, | A,,C,F,B,, C,A,F,D, | G,,B,,E,A,, B,,G,E,C, | %24
 F,,/A,,/G,,/B,,/ A,,/C,/B,,/D,/ C,/F,/E,/D,/ C,/B,,/A,,/G,,/ | A,,C,F,G, A,B,CC, | %26
 F,D,E,^B,, C,D,E,E,, | A,,/C,/^B,,/D,/ C,/E,/D,/F,/ E,/A,/^^G,/^^F,/ E,/D,/C,/B,,/ | %28
 C,/E,/D,/F,/ E,/D,/C,/^B,,/ A,,/C,/B,,/D,/ C,/B,,/A,,/G,,/ | %29
 ^^F,,/A,,/^^G,,/^B,,/ A,,/^G,,/^F,,/E,,/ ^^D,,^^D, z/ F,/E,/^D,/ | %30
 C,/^B,,/C,/D,/ E,/F,/D,/E,/ F,F,,E,,D,, | C,,C,/D,/ E,E,, A,,4 | %32
 A,,/^^C,/^B,,/D,/ C,/E,/D,/F,/ E,/G,/F,/E,/ D,/C,/B,,/A,,/ | D,F,^B,E, F,DB,G, | %34
 B,/G,/4E,/4C,- C,/E,/4G,/4A,/4G,/4F,/ E,/G,/4B,/4D- D/G,/4F,/4G,/4A,/4B,/ | %35
 A,/G,/F,/E,/ F,/A,/B,,/A,/ F,/A,/C,/A,/ F,/A,/D,/A,/ | %36
 =E,/G,/F,/=A,/ G,/F,/E,/D,/ C,E, ^A,/4G,/4A,3/2- | %37
 A,/^^F,/G,/^E,/ F,/A,/D,/C,/ B,,D, G,/4F,/4G,3/2- | %38
 G,/F,/=E,/D,/ E,/G,/C,/B,,/ A,,/G,/^^F,/^E,/ F,/A,/D,/C,/ | B,,=E,C,D, G,,A,,B,,A,, | %40
 G,,B,,E,A,, B,,G,E,C, | F,,A,,D,G,, A,,F,D,B,, | E,,G,,^^C,F,, G,,E,C,A,, | %43
 D,,/F,,/E,,/G,,/ F,,/A,,/G,,/B,,/ A,,/D,/^^C,/^B,,/ A,,/G,,/F,,/E,,/ | %44
 F,,/A,,/^^C,/E,/ A,,/C,/E,/G,/ F,/4E,/4D,/E, z A, | D,B,C,A, B,,G,A,,A, | %46
 B,/G,/A,/C/ B,/A,/G,/B,/ A,/E,/F,/A,/ G,/F,/E,/G,/ | %47
 F,/^^C,/D,/F,/ A,A,, C/A,/4^^F,/4D,- D,/F,/4A,/4B,/4A,/4G,/ | %48
 ^^F,/A,/4C/4=E- E/A,/4G,/4A,/4B,/4C/ ^E,/^^G,/F,/A,/ G,/^B,/A,/C/ | %49
 ^B,/D/C/B,/ A,/^^G,/^^F,/E,/ ^G,/E,/4^^C,/4A,,- A,,/C,/4E,/4A,- | %50
 A,/G,/4E,/4^^C,/B,/ A,/G,/4F,/4E,/4F,/4G,/ F,B,,A,,G,, | F,,F,/G,/ A,A,, D,,4 | %52
 A,,/^^C,/^B,,/D,/ C,/E,/D,/F,/ E,/G,/F,/E,/ D,/C,/B,,/A,,/ | D,F,^B,E, F,DB,G, | %54
 B,/G,/4E,/4C,- C,/E,/4G,/4A,/4G,/4F,/ E,/G,/4B,/4D- D/G,/4F,/4G,/4A,/4B,/ | %55
 A,/G,/F,/E,/ F,/A,/B,,/A,/ F,/A,/C,/A,/ F,/A,/D,/A,/ | %56
 =E,/G,/F,/=A,/ G,/F,/E,/D,/ C,E, ^A,/4G,/4A,3/2- | %57
 A,/^^F,/G,/^E,/ F,/A,/D,/C,/ B,,D, G,/4F,/4G,3/2- | %58
 G,/F,/=E,/D,/ E,/G,/C,/B,,/ A,,/G,/^^F,/^E,/ F,/A,/D,/C,/ | B,,=E,C,D, G,,A,,B,,A,, | %60
 G,,B,,E,A,, B,,G,E,C, | F,,A,,D,G,, A,,F,D,B,, | E,,G,,^^C,F,, G,,E,C,A,, | %63
 D,,/F,,/E,,/G,,/ F,,/A,,/G,,/B,,/ A,,/D,/^^C,/^B,,/ A,,/G,,/F,,/E,,/ | %64
 F,,/A,,/^^C,/E,/ A,,/C,/E,/G,/ F,/4E,/4D,/E, z A, | D,B,C,A, B,,G,A,,A, | %66
 B,/G,/A,/C/ B,/A,/G,/B,/ A,/E,/F,/A,/ G,/F,/E,/G,/ | %67
 F,/^^C,/D,/F,/ A,A,, C/A,/4^^F,/4D,- D,/F,/4A,/4B,/4A,/4G,/ | %68
 ^^F,/A,/4C/4=E- E/A,/4G,/4A,/4B,/4C/ ^E,/^^G,/F,/A,/ G,/^B,/A,/C/ | %69
 ^B,/D/C/B,/ A,/^^G,/^^F,/E,/ ^G,/E,/4^^C,/4A,,- A,,/C,/4E,/4A,- | %70
 A,/G,/4E,/4^^C,/B,/ A,/G,/4F,/4E,/4F,/4G,/ F,B,,A,,G,, | F,,F,/G,/ A,A,, !fermata!D,,4 | z8 | %73
[M:4/4] z8 | z8 | z A,A,A, ^^G,A, ^B,2- | B,A,[I:staff -1] D3 C/^B,/ ED | C^B,A,A D3 C | %78
[I:staff +1] B,2 A,2 G,[I:staff -1]G ^^C2 | D[I:staff +1]E,F,G, A,3 G,/A,/ | %80
 B,3 A,/^B,/ C3[I:staff -1] B,/^^C/ | D[I:staff +1]G, F,/G,/A,/^B,/ CB,/A,/ ^^G,2- | %82
 G,A,/^^G,/ A, z z D^B,E | E2 z2 z C=B,C | ^^F, =E2 D/^^C/ D3[I:staff -1] B | %85
 A[I:staff +1]D[I:staff -1] G2- G[I:staff +1]^^CDE | A, D2[I:staff -1] ^^C F3 E/D/ | %87
 ^^C D2 ^C- C/B,/A,/G,/ ^^F,/G,/A,/B,/ | C/D/C/B,/ A,/G,/[I:staff +1]F,/E,/ D,2 z A, | %89
 D/=E/D/C/ B,/C/D- D/C/B,/A,/ G,/A,/B,/G,/ | A,[I:staff -1]D[I:staff +1]G,[I:staff -1]G C4- | %91
 CCCC A,B, C2- | CB, =E2- ED/C/ FE | D[I:staff +1]^^F,G,^^G, A,3 ^G,/A,/ | B,3 A,/^B,/ C3 B,/^^C/ | %95
 D2- D/=E/D/C/ B,2- B,A,/G,/ | A,[I:staff -1]=EEE D^E^^FG | AG ^^F2 G ^F2 E/D/ | %98
 ^^C D2 C/^B,/ C2[I:staff +1] ^C2- | CB,/A,/ B,=E CA,DE | D C2 =C ^C2- CD | %101
 ^B,C =D2 C^D/E/[I:staff -1] F/G/=A- | AG/F/ G2 F[I:staff +1] z z2 | z8 | z DDD CD =E2- | %105
 ED[I:staff -1] G2- GF/^E/ AG | F>E DC ^B,2 C2 |[I:staff +1] ^B,D/A,/ B,2 A,B, C2- | %108
 C^^F,G,A, D, G,2 F, | B,3 A,/G,/ A, D2 ^^C |[K:treble] F3 E/D/ E A2 G | ^^FD G2- G^F- F/F/E/D/ | %112
[K:bass] ^^C/E/D/^C/ ^B,=B, A,2 z ^B, | E z z E A, z z D | E z z ^^C DA,/G,/ A,B, | %115
 A,2 G,2 F,A,A,A, | B,A, G,2- G,A, E,2- | E,F,/G,/ D,E, F,B, A,D,/E,/ | %118
 F,E,/D,/ A,[I:staff -1]E D4 |] %119
V:3
 x8 | x8 | x8 | x8 | x8 | x8 | x8 | x8 | x8 | x8 | x8 | x8 | x8 | x8 | x8 | x8 | x8 | x8 | x8 | %19
 x8 | x8 | x8 | x8 | x8 | x8 | x8 | x8 | x8 | x8 | x8 | x8 | x8 | x8 | x8 | x8 | x8 | x8 | x8 | %38
 x8 | x8 | x8 | x8 | x8 | x8 | x8 | x8 | x8 | x8 | x8 | x8 | x8 | x8 | x8 | x8 | x8 | x8 | x8 | %57
 x8 | x8 | x8 | x8 | x8 | x8 | x8 | x8 | x8 | x8 | x8 | x8 | x8 | x8 | x8 | x8 |[M:4/4] x8 | x8 | %75
 x8 | x8 | x8 | x8 | z D,D,D, ^^C,E, E,2- | E,D, G,3 F,/E,/ A,G, | F,E, D,C,/D,/ E,3 D,/E,/ | %82
 F,3 E,/^^F,/ ^G,3 F,/^^G,/ | A,^B, C2- C^^F,G,A, | D, G,2 ^^F, B,3 A,/G,/ | DC B,2 A,3 G, | %86
 F,2 E,2 D,C,B,,B, | A,A,,A,,A,, ^^F,,G,, A,,2- | A,,G,, C,2- C,B,,/A,,/ D,C, | %89
 B,,>A,, G,,/A,,/B,,/G,,/ C,D,^^E,C, | F,3 E,/D,/ E,/G,/C,/D,/ E,/F,/G,/E,/ | %91
 F,E,/D,/ C,/D,/=E,/C,/ D,2- D,/D,,/E,,/^^F,,/ | G,,2- G,,^^F,,/G,,/ A,,2- A,,G,,/A,,/ | %93
 B,,4 A,,^B,, ^^C,B,,/C,/ | D,^^C,/D,/ E,2- E,D,/E,/ F,2- | F,E,/^^F,/ G,2- G,^F, =E,2 | %96
 D,2 C,2 B,,3 A,,/G,,/ | ^^F,,D,D,D, ^^C,D, E,2 | E,D, G,3 F,/E,/ A,G, | %99
 ^^F,D, G,2- G,^^F,/^E,/ F,^F,- | F,=E,F,G, A,3 G,/F,/ | G,A, =B,2- B,A,/G,/ A,^B, | %102
 C2 C,2 F,/E,/F,/G,/ A,/F,/G,/A,/ | B,/C/D/B,/ C/B,/A,/G,/ F,/G,/F,/=E,/ D,/C,/B,,/A,,/ | %104
 B,,B,/A,/ B,C/B,/ A,2 =A,2 | G,2- G,/F,/=E,/D,/ ^^C,3 ^B,,/A,,/ | %106
 D,D,,D,E, F,E,/D,/ C,/^B,,/A,,/C,/ | E,,4 A,, z z2 | x8 | x8 |[K:treble] x8 | x8 | %112
[K:bass] z4 z D,D,D, | ^^C,D, E,2- E,D, G,2- | G,F,/E,/ A,G, F,D,/E,/ F,G, | A,2 A,,2 D,4- | %116
 D,D,/^^C,/ D,/F,/E,/D,/ C,F, z/ B,,/A,,/G,,/ | A,,>G,, F,,A,, D,E,F,^^G,, | A,,4 D,,4 |] %119
V:4
 x8 | x8 | x8 | x8 | x8 | x8 | x8 | x8 | x8 | x8 | x8 | x8 | x8 | x8 | x8 | x8 | x8 | x8 | x8 | %19
 x8 | x8 | x8 | x8 | x8 | x8 | x8 | x8 | x8 | x8 | x8 | x8 | x8 | x8 | x8 | x8 | x8 | x8 | x8 | %38
 x8 | x8 | x8 | x8 | x8 | x8 | x8 | x8 | x8 | x8 | x8 | x8 | x8 | x8 | x8 | x8 | x8 | x8 | x8 | %57
 x8 | x8 | x8 | x8 | x8 | x8 | x8 | x8 | x8 | x8 | x8 | x8 | x8 | x8 | x8 | x8 |[M:4/4] x8 | x8 | %75
 x8 | x8 | x8 | x8 | x8 | x8 | D^^C D/E/F ^E3 F/E/ | DC z c ^BA G/A/B- | %83
 BA/^^G/ A^G ^^FA D/^E/F/G/ | AG z2 z4 | x8 | x8 | x8 | x8 | z GGG =EF G2- | GF B3 A/G/ cB | %91
 AG/E/ EG- GF/G/ A2- | AG/^^F/ GA/B/ c4- | cB/A/ B/G/F/^E/ F>F E/F/G- | GF z f e z z e | %95
 d^c- cB/A/ G/D/G GG | ^^FG A2- AG c2- | cB/A/ dc BA G2- | GF E2- EA/G/ FE | Dd d/B/A/G/ A3 =A | %100
 G2 =AG/F/ =EF/G/ A2 | G3 =A/B/ c3 d | cBBB AB c2- | cB e3 d/c/ fe | d2 z G AB c2- | %105
 cB/A/ B2- BA/G/ A2 | A>G FE D/E/F EF/^^D/ | E3 D CDE=E | D3 C[I:staff +1] B,2 A,[I:staff -1]A | %109
 DG/^^F/ G2- G[I:staff +1]^F^E[I:staff -1]^e | Ad/^^c/ d2- d^c/^B/ c2- | c/c/B/A/ B2 A2 G2- | %112
 G/G/F/E/ D/F/E/D/ ^^C[I:staff +1]D[I:staff -1] z ^^G | A z z ^^c f z z B | A z z F FF/E/ DE- | %115
 E D2 ^^C DF/E/ F/A/G/F/ | E/G/F/A/ B/A/B- BA z/ d/^^c/^B/ | ^^cd/e/ fc dG F/E/F- | %118
 FG/F/ E/F/G ^^F4 |] %119
V:5
 x8 | x8 | x8 | x8 | x8 | x8 | x8 | x8 | x8 | x8 | x8 | x8 | x8 | x8 | x8 | x8 | x8 | x8 | x8 | %19
 x8 | x8 | x8 | x8 | x8 | x8 | x8 | x8 | x8 | x8 | x8 | x8 | x8 | x8 | x8 | x8 | x8 | x8 | x8 | %38
 x8 | x8 | x8 | x8 | x8 | x8 | x8 | x8 | x8 | x8 | x8 | x8 | x8 | x8 | x8 | x8 | x8 | x8 | x8 | %57
 x8 | x8 | x8 | x8 | x8 | x8 | x8 | x8 | x8 | x8 | x8 | x8 | x8 | x8 | x8 | x8 |[M:4/4] x8 | x8 | %75
 x8 | x8 | x8 | x8 | x8 | x8 | x8 | x8 | x8 | x8 | x8 | x8 | x8 | x8 | x8 | x8 | x8 | x8 | x8 | %94
 x8 | x8 | x8 | x8 | x8 | x8 | x8 | x8 | x8 | x8 | x8 | x8 | x8 | x8 | x8 | x8 | x8 | x8 | x8 | %113
 x8 | x8 | x8 | x8 | x8 | A4 A4 |] %119

